!!! OTL: Berkowitz352
!!! Chapter: 1
!!! Section: III
!!! Page: 86
!!! Mode: 
!!! Encoder: DJB
**kern
*staff1
*I"Piano
=1-
*clefG2
*k[b-]
*F:
*M12/8
4.r
4.r
4.r
8r
8cc\L
8aa\J
=2
4aa\
8gg\
4bb-\
8ee\
8gg\L
8ff\
8dd\J
4.cc\
=3
8dd\L
8ff\
8cc\J
8b-\L
8ff\
8a\J
8g\L
8ee\
8dd\J
4cc\
8cc#\
=4
4.dd\
4ee\
8ccc#\
8ddd\L
8aa\
8ff\J
4.dd\
=5
!!linebreak:original
8cc#\L
8dd\
8ee\J
4ff\
8a/
8cc#\L
8gg\
8ee\J
4ff\
8r
=6
4cc\
8b-\
4a/
8dd\
4b-\
8a/
8g/L
8a/
8b-/J
=7
4cc\
8ff\
4dd\
8gg\
4ee\
8aa\
4ff\
8bb-\
=8
4aa\
8cc\
8gg\L
8ff\
8ee\J
4ff\
8b-\
8g/L
8a/
8b-/J
=9
!!linebreak:original
8cc\L
8aa\
8ff\J
8gg\L
8ff\
8ee\J
4.ff\
8r
4r
==
*-
